X:1
T:Title
%%score { ( 1 3 4 ) | ( 2 5 ) }
L:1/8
M:4/4
K:Ab
V:1 treble nm="Grand Piano"
V:3 treble 
V:4 treble 
V:2 bass 
V:5 bass 
V:1
 z4 z2[Q:1/4=106] E2 | [CEc]2 [CEc]2 z2[K:bass] z E | [CEc]2 [CEc]2 z2[K:bass] z E | %3
 [CEc]2 [CEA]2 [CEG]2 [CEA]2 | [DEG]2 [DEG]2 [G,DEG]2 z B | z4 d4 | z4 c4 | %7
 [=DB]2 [DF]2 [DG]2 [DA]2 | c2 B2 G2 E2 | C2 z F C2 z F | [CE]2 [CEc]2 [CEc]2 [Ec]2 | %11
 [=Ec]2 [EG]2 [Ec]2 [EB]2 | [FA]6 [FA]2 | [FA]3 [FB] [FA]2 [DF]2 | [CE]3 [DF] [CE]2 [Ec]2 | %15
 [=Dc]4 [_DB]4 |[M:3/4] [CA]6 |[M:1/4] E z |[M:4/4][K:bass] [A,CE]2 .[E,CE]2 [A,CE]2 .[E,CE]2 | %19
 [CE]2[K:treble] [CEc]2 [CEc]2 .[CE]2 | [A,CE]2 .[E,CE]2[K:treble] [CE]2 [CA]2 | G6 z2 | %22
 [DE]2 D-[DF] [DE]2 D-[DF] | [DE]2 [EGd]2 [EGd]2 D-[DF] | [DE]2 D-[DF] [DEG]2 [DF]2 |[M:3/4] E6 | %26
[M:1/4] cd |[M:4/4] e2 c2 e2 c2 | [Ge]2 [GB]2 [GB]2 [FA][FB] | [=Ec]2 [EG]2 [Ec]2 [EG]2 | %30
[M:3/4] [=Ec]2 [EG]2 [EG]2 |[M:1/4] [=EA][EG] |[M:4/4] [DF]2 [Ff]2 [Ff]2 [EG][DF] | %33
 [CE]2 [Ee]2 [Ee]2 [Ec][Ec] | [Ge]2 [FGd]2 [EGc]2 [DGB]2 |[M:3/4] A2- [FA-]2 [EA]2 |] %36
V:2
 z4 z2 E,2 | [A,,A,]2 [E,,E,]2 [A,,A,]2 z C | [A,,A,]2 [E,,E,]2 [A,,A,]2 z C | %3
 [A,,A,]2 [E,,E,]2 [A,,A,]2 [E,,E,]2 | [B,,B,]2 [E,,E,]2 G,,2 E,,2 | %5
 [B,,B,]2 [E,,E,]2 [B,,B,]2 [E,,E,]2 | [A,,A,]2 [E,,E,]2 [A,,A,]2 [E,,E,]2 | %7
 [B,,B,]2 [B,,B,]2 [B,,B,]2 [B,,B,]2 | [E,G,D]2 [E,G,D]2 [E,G,D]2 [E,G,D]2 | %9
 [A,,A,]2 [E,,E,]2 [A,,A,]2 [E,,E,]2 | [A,,A,]2 [E,,E,]2 [A,,A,]2 [A,,A,]2 | %11
 [C,G,]2 [C,C]2 [C,C]2 [C,C]2 | [F,C]6 [F,C]2 | [D,D]3 [D,D] [D,D]2 [D,A,]2 | %14
 [A,,A,]3 [A,,A,] [A,,A,]2 [A,,A,]2 | [B,,F,]4 [E,G,]4 |[M:3/4] [A,,A,]6 |[M:1/4] z F | %18
[M:4/4] A,,2 z F A,,2 z F | [A,,A,]2 [E,,E,]2 [A,,A,]2 z F | A,,2 z F [A,,A,]2 [E,,E,]2 | %21
 [E,G,B,DE]2 [E,G,B,D]2 [E,G,B,D]2 [E,G,B,D]2 | [E,,E,]2 [B,,,B,,]2 [E,,E,]2 [B,,,B,,]2 | %23
 [E,,E,]2 [B,,,B,,]2 [E,,E,]2 [B,,,B,,]2 | [E,,E,]2 [B,,,B,,]2 [E,,E,]2 [B,,,B,,]2 | %25
[M:3/4] [A,,A,]2 [A,,A,]2 [A,,A,]2 |[M:1/4][K:treble] [A,EA][A,DA] | %27
[M:4/4] [A,CA]2 [A,EA]2 [A,CA]2 [A,EA]2 | [E,E]2 [E,E]2 [E,E]2 [F,C][F,C] | %29
 [C,C]2 [C,C]2 [C,C]2 [C,C]2 |[M:3/4] [C,C]2 [C,C]2 [C,C]2 |[M:1/4] [C,C][C,B,] | %32
[M:4/4] [D,A,]2 [D,A,]2 [D,A,]2 [D,A,][D,A,] | [A,,A,]2 [C,A,]2 [C,A,]2 [A,,A,][A,,A,] | %34
 [E,B,]2 E,2 E,2 E,2 |[M:3/4] z2 D2 C2 |] %36
V:3
 x8 | z4 [CEc]4[K:bass] | z4 [CEc]4[K:bass] | x8 | d6 E,2 | [EGd]2 [DFd]2 [EG]2 G-[EG] | %6
 [CEc]2 [CEc]2 [CE]2 z A | x8 | x8 | E4 E4 | x8 | x8 | x8 | x8 | x8 | x8 |[M:3/4] x6 |[M:1/4] C2 | %18
[M:4/4][K:bass] x8 | x2[K:treble] x6 | x4[K:treble] x4 | z2 E2 E2 EF | z2 .E2 z2 .E2 | z4 z2 .E2 | %24
 z2 .E2 z4 |[M:3/4] C2 C2 C2 |[M:1/4] x2 |[M:4/4] x8 | x8 | x8 |[M:3/4] x6 |[M:1/4] x2 | %32
[M:4/4] x8 | x8 | x8 |[M:3/4] [CE]2 z2 z2 |] %36
V:4
 x8 | z4 z2[K:bass] E,2 | z4 z2[K:bass] E,2 | x8 | x8 | z4 z2 .E2 | z4 z2 [CE]2 | x8 | x8 | %9
 z2 C2 z2 C2 | x8 | x8 | x8 | x8 | x8 | x8 |[M:3/4] x6 |[M:1/4] x2 |[M:4/4][K:bass] x8 | %19
 x2[K:treble] x6 | x4[K:treble] x4 | x8 | x8 | x8 | x8 |[M:3/4] x6 |[M:1/4] x2 |[M:4/4] x8 | x8 | %29
 x8 |[M:3/4] x6 |[M:1/4] x2 |[M:4/4] x8 | x8 | x8 |[M:3/4] x6 |] %36
V:5
 x8 | z4 z2 E,,2 | z4 z2 E,,2 | x8 | x8 | x8 | x8 | x8 | x8 | x8 | x8 | x8 | x8 | x8 | x8 | x8 | %16
[M:3/4] x6 |[M:1/4] [A,,A,]2 |[M:4/4] z2 E,,2 z2 E,,2 | z4 z2 [E,,E,]2 | z2 E,,2 z4 | x8 | x8 | %23
 x8 | x8 |[M:3/4] x6 |[M:1/4][K:treble] x2 |[M:4/4] x8 | x8 | x8 |[M:3/4] x6 |[M:1/4] x2 | %32
[M:4/4] x8 | x8 | x8 |[M:3/4] A,6 |] %36

